!!!!SEGMENT: pl-cz--iii-686--001-005_volckmer-augustin--requiem-agnus-dei.krn
!!!cenid: 18xx:1145
!!!COM: Volckmer, Augustin
!!!COM-rismID: pe30020656
!!!CDT: 1755-~1820
!!!CNT:
!!!OPR: Requiem
!!!OTL: Agnus Dei
!!!OMV: 005
!!!PDT: 1836
!!!AGN: Sacred; Requiem
!!!YEC: Copyright 2022 Narodowy Instytut Fryderyka Chopina (https://polishscores.org)
!!!YEM: License CC-BY-4.0 (https://creativecommons.org/licenses/by/4.0)
!!!SMS-siglum: PL-CZ
!!!SMS-shelfmark: III-686
!!!SMS-shelfwork: 001-005 M
!!!SMS-variant:
!!!SMS-altvar:
!!!NIFC-rismSourceID: 300001401
!!!NIFC-rismChildID: 300001401
!!!NIFC-islandoraID: pl-cz:23649
!!!URL-pdf-islandora: https://repozytorium.nifc.pl/islandora/object/pl-cz%3A23649/datastream/PDF/view
!!!URL-scan: https://polish.musicsources.pl/pl/lokalizacje/galeria/rekopisy/1423 @EN{Scan on Polish Music Sources Website} @PL{Skany w portalu Dziedzictwo Muzyki Polskiej w otwartym dostępie}
!!!IIIF:
!!!ONB-nifc: UWAGA: części Requiem: Requiem, Dies irae, Domine Jesu Christe, Sanctus et Benedictus,
!!!AIN: 1 alto 1 bass 2 clars 2 cor 1 fagot 1 organ 1 soprn 1 tenor 2 tromp 2 violn
!!!key: E-
**kern	**fba	**dynam	**kern	**dynam	**kern	**dynam	**kern	**text	**kern	**kern	**text	**dynam	**kern	**text	**kern	**kern	**kern	**kern	**kern	**dynam	**kern	**kern
*	*	*	*group4	*	*group4	*	*group3	*	*group3	*group3	*	*	*group3	*	*group2	*group2	*group2	*group2	*group1	*	*group1	*group1
*part14	*	*	*part13	*	*part12	*	*part11	*	*part10	*part9	*	*	*part8	*	*part7	*part6	*part5	*part4	*part3	*	*part2	*part1
*staff14	*	*	*staff13	*	*staff12	*	*staff11	*	*staff10	*staff9	*	*	*staff8	*	*staff7	*staff6	*staff5	*staff4	*staff3	*	*staff2	*staff1
*I"Organo.	*	*	*I"Violino IIdo	*	*I"Violino Primo	*	*I"Basso	*	*I"Tenore,	*I"Alto.	*	*	*I"Canto	*	*I"Tromba IIdo in Es	*I"Tromba 1ma in Es	*I"Cornuo IIdo in Es.	*I"Corno Prymo in Es	*I"Fagotto.	*	*I"Clarinetto IIdo in B.	*I"Clarinetto 1mo in B.
*I'org	*	*	*I'vl 2	*	*I'vl 1	*	*I'B	*	*I'T	*I'A	*	*	*I'S	*	*I'tr 2 in E|b	*I'tr 1 in E|b	*I'cor 2 in E|b	*I'cor 1 in E|b	*I'fag	*	*I'cl 2 in B|b	*I'cl 1 in B|b
*Iorgan	*	*	*Ivioln	*	*Ivioln	*	*Ibass	*	*Itenor	*Ialto	*	*	*Isoprn	*	*Itromp	*Itromp	*Icor	*Icor	*Ifagot	*	*Iclars	*Iclars
*ICklav	*	*	*ICstr	*	*ICstr	*	*ICvox	*	*ICvox	*ICvox	*	*	*ICvox	*	*ICbras	*ICbras	*ICbras	*ICbras	*ICww	*	*ICww	*ICww
*IGcont	*	*	*	*	*	*	*IGcoro	*	*IGcoro	*IGcoro	*	*	*IGcoro	*	*	*	*	*	*	*	*	*
*clefF4	*	*	*clefG2	*	*clefG2	*	*clefF4	*	*clefC4	*clefC3	*	*	*clefC1	*	*clefG2	*clefG2	*clefG2	*clefG2	*clefF4	*	*clefG2	*clefG2
*	*	*	*	*	*	*	*	*	*	*	*	*	*	*	*ITrd-2c-3	*ITrd-2c-3	*ITrd5c9	*ITrd5c9	*	*	*ITrd1c2	*ITrd1c2
*k[b-e-a-]	*	*	*k[b-e-a-]	*	*k[b-e-a-]	*	*k[b-e-a-]	*	*k[b-e-a-]	*k[b-e-a-]	*	*	*k[e-b-a-]	*	*k[b-e-a-]	*k[b-e-a-]	*k[b-e-a-]	*k[b-e-a-]	*k[b-e-a-]	*	*k[b-e-a-]	*k[b-e-a-]
*E-:	*	*	*E-:	*	*E-:	*	*E-:	*	*E-:	*E-:	*	*	*E-:	*	*E-:	*E-:	*E-:	*E-:	*E-:	*	*E-:	*E-:
*M2/2	*	*	*M2/2	*	*M2/2	*	*M2/2	*	*M2/2	*M2/2	*	*	*M2/2	*	*M2/2	*M2/2	*M2/2	*M2/2	*M2/2	*	*M2/2	*M2/2
*met(c|)	*	*	*met(c|)	*	*met(c|)	*	*met(c|)	*	*met(c|)	*met(c|)	*	*	*met(c|)	*	*met(c|)	*met(c|)	*met(c|)	*met(c|)	*met(c|)	*	*met(c|)	*met(c|)
=1	=1	=1	=1	=1	=1	=1	=1	=1	=1	=1	=1	=1	=1	=1	=1	=1	=1	=1	=1	=1	=1	=1
*	*	*	*	*	*	*	*	*	*	*	*	*	*	*	*	*	*	*all\right	*	*	*all\right	*all\right
!	!	!	!	!	!	!	!LO:TX:t=P:problem=kolejność znaków A- C-(błędnie zamiast E-) BB-	!	!LO:TX:t=P:problem=brak tej części w źródle	!LO:TX:b:t=A	!	!	!LO:TX:t=P:problem=kolejność znaków e- b- f-(błędnie zamiast a-)	!	!	!	!	!	!	!	!	!
!	!	!	!	!	!	!	!LO:TX:a:t=7.	!	!	!LO:TX:a:t=5.	!	!	!	!	!LO:TX:a:t=11.	!LO:TX:b:t=11:color=grey	!LO:TX:a:t=11	!LO:TX:a:t=11	!	!	!LO:TX:a:t=11	!LO:TX:a:t=11
!LO:TX:a:i:t=Adagio.	!	!	!LO:TX:a:i:t=Adagio	!LO:DY:b:rj:t=pio&colon;	!LO:TX:a:i:t=Adagio.	!LO:DY:b:rj	!O:TX:a:t=Adagio	!	!	!LO:TX:a:i:t=Adagio	!	!	!LO:TX:a:i:t=Adagio	!	!LO:TX:a:i:t=Adagio	!LO:TX:a:i:t=Adagio.	!LO:TX:a:i:t=Adagio	!LO:TX:a:i:t=Adagio	!LO:TX:a:i:t=Adagio	!	!LO:TX:a:i:t=Adagio	!LO:TX:a:i:t=Adagio
4E-\|	.	.	8G/L	p	8e-/L	p	00r	.	1ryy	00r	.	.	1r	.	00r	00r	00r	00r	4E-\	.	00r	00r
.	.	.	8B-/	.	8g/	.	.	.	.	.	.	.	.	.	.	.	.	.	.	.	.	.
4r	.	.	8An/	.	8f#X/	.	.	.	.	.	.	.	.	.	.	.	.	.	4r	.	.	.
.	.	.	8B-/J	.	8g/J	.	.	.	.	.	.	.	.	.	.	.	.	.	.	.	.	.
4E-\|	.	.	8G/L	.	8e-/L	.	.	.	.	.	.	.	.	.	.	.	.	.	4E-\	.	.	.
.	.	.	8B-/	.	8g/	.	.	.	.	.	.	.	.	.	.	.	.	.	.	.	.	.
4r	.	.	8A-X/	.	8fn/	.	.	.	.	.	.	.	.	.	.	.	.	.	4r	.	.	.
.	.	.	8B-/J	.	8e-/J	.	.	.	.	.	.	.	.	.	.	.	.	.	.	.	.	.
=2	=2	=2	=2	=2	=2	=2	=2	=2	=2	=2	=2	=2	=2	=2	=2	=2	=2	=2	=2	=2	=2	=2
*	*	*	*	*	*	*	*	*	*	*	*	*	*2\right	*	*	*	*	*	*	*	*	*
4BB-/|	.	.	8B-/L	.	8d/L	.	.	.	1ryy	.	.	.	2b-\	A-	.	.	.	.	4BB-/	.	.	.
.	.	.	8f/	.	8a-/	.	.	.	.	.	.	.	.	.	.	.	.	.	.	.	.	.
4r	.	.	8en/	.	8g/	.	.	.	.	.	.	.	.	.	.	.	.	.	4r	.	.	.
.	.	.	8f/J	.	8a-/J	.	.	.	.	.	.	.	.	.	.	.	.	.	.	.	.	.
4BB-/|	.	.	8d/L	.	8f/L	.	.	.	.	.	.	.	8b-\L	-gnus	.	.	.	.	4BB-/	.	.	.
.	.	.	8f/	.	8a-/	.	.	.	.	.	.	.	8a-\J	.	.	.	.	.	.	.	.	.
4r	.	.	8e-X/	.	8g/	.	.	.	.	.	.	.	8g\L	De-	.	.	.	.	4r	.	.	.
.	.	.	8B-/J	.	8f/J	.	.	.	.	.	.	.	8f\J	.	.	.	.	.	.	.	.	.
=3	=3	=3	=3	=3	=3	=3	=3	=3	=3	=3	=3	=3	=3	=3	=3	=3	=3	=3	=3	=3	=3	=3
4E-\|	.	.	8G/L	.	8e-/L	.	.	.	1ryy	.	.	.	8e-/	.	.	.	.	.	4E-\	.	.	.
.	.	.	8B-/	.	8g/	.	.	.	.	.	.	.	8e-/	-i	.	.	.	.	.	.	.	.
4r	.	.	8An/	.	8f#X/	.	.	.	.	.	.	.	4r	.	.	.	.	.	4r	.	.	.
.	.	.	8B-/J	.	8g/J	.	.	.	.	.	.	.	.	.	.	.	.	.	.	.	.	.
!	!	!	!	!	!LO:LB:g=original	!	!	!	!	!	!	!	!	!	!	!	!	!	!	!	!	!
4E-\|	.	.	8G/L	.	8e-/L	.	.	.	.	.	.	.	2r	.	.	.	.	.	4E-\	.	.	.
.	.	.	8B-/	.	8g/	.	.	.	.	.	.	.	.	.	.	.	.	.	.	.	.	.
4r	.	.	8A-X/	.	8fn/	.	.	.	.	.	.	.	.	.	.	.	.	.	4r	.	.	.
.	.	.	8B-/J	.	8e-/J	.	.	.	.	.	.	.	.	.	.	.	.	.	.	.	.	.
!	!	!	!LO:LB:g=original	!	!	!	!	!	!	!	!	!	!LO:LB:g=original	!	!	!	!	!	!	!	!	!
=4	=4	=4	=4	=4	=4	=4	=4	=4	=4	=4	=4	=4	=4	=4	=4	=4	=4	=4	=4	=4	=4	=4
4BB-/|	.	.	8B-/L	.	8d/L	.	.	.	1ryy	.	.	.	2b-\	A-	.	.	.	.	4BB-/	.	.	.
.	.	.	8f/	.	8a-/	.	.	.	.	.	.	.	.	.	.	.	.	.	.	.	.	.
4r	.	.	8en/	.	8g/	.	.	.	.	.	.	.	.	.	.	.	.	.	4r	.	.	.
.	.	.	8f/J	.	8a-/J	.	.	.	.	.	.	.	.	.	.	.	.	.	.	.	.	.
4BB-/|	.	.	8d/L	.	8f/L	.	.	.	.	.	.	.	8b-\L	-gnus	.	.	.	.	4BB-/	.	.	.
.	.	.	8e/	.	8a-/	.	.	.	.	.	.	.	8a-\J	.	.	.	.	.	.	.	.	.
4r	.	.	8e-X/	.	8g/	.	.	.	.	.	.	.	8g\L	de-	.	.	.	.	4r	.	.	.
.	.	.	8B-/J	.	8f/J	.	.	.	.	.	.	.	8f\J	.	.	.	.	.	.	.	.	.
!LO:LB:g=original	!	!	!	!	!	!	!	!	!	!	!	!	!	!	!	!	!	!	!	!	!	!
=5	=5	=5	=5	=5	=5	=5	=5	=5	=5	=5	=5	=5	=5	=5	=5	=5	=5	=5	=5	=5	=5	=5
4E-\|	.	.	8G/L	.	8e-/L	.	0r	.	1ryy	1r	.	.	8e-\	.	00r	00r	00r	00r	4E-\	.	00r	00r
.	.	.	8B-/	.	8g/	.	.	.	.	.	.	.	8e-\	-i	.	.	.	.	.	.	.	.
4r	.	.	8An/	.	8f#X/	.	.	.	.	.	.	.	4r	.	.	.	.	.	4r	.	.	.
.	.	.	8B-/J	.	8g/J	.	.	.	.	.	.	.	.	.	.	.	.	.	.	.	.	.
4E-\|	.	.	8G/L	.	8e-/L	.	.	.	.	.	.	.	4r	.	.	.	.	.	4E-\	.	.	.
.	.	.	8B-/	.	8g/	.	.	.	.	.	.	.	.	.	.	.	.	.	.	.	.	.
4r	.	.	8A-X/	.	8fn/	.	.	.	.	.	.	.	4e-/	qui	.	.	.	.	4r	.	.	.
.	.	.	8G/J	.	8e-/J	.	.	.	.	.	.	.	.	.	.	.	.	.	.	.	.	.
=6	=6	=6	=6	=6	=6	=6	=6	=6	=6	=6	=6	=6	=6	=6	=6	=6	=6	=6	=6	=6	=6	=6
4D\	n6	.	8r	.	8r	.	.	.	1ryy	4Bn\	Ag-	.	4g\	tol-	.	.	.	.	4C\	.	.	.
.	.	.	8f/L	.	8g/L	.	.	.	.	.	.	.	.	.	.	.	.	.	.	.	.	.
4r	.	.	8f/	.	8g/	.	.	.	.	4B\	-nus	.	8g\L	-lis	.	.	.	.	4r	.	.	.
.	.	.	8f/J	.	8g/J	.	.	.	.	.	.	.	8g\J	pec-	.	.	.	.	.	.	.	.
4C\	8 6	.	8r	.	8r	.	.	.	.	4c\	de-	.	4.ee-\	-ca-	.	.	.	.	4C\	.	.	.
*	*	*	*tremolo	*	*	*	*	*	*	*	*	*	*	*	*	*	*	*	*	*	*	*
.	.	.	8e-/L	.	8g/L	.	.	.	.	.	.	.	.	.	.	.	.	.	.	.	.	.
4r	.	.	8e-/	.	8g/	.	.	.	.	4c\	-i	.	.	.	.	.	.	.	4r	.	.	.
.	.	.	8e-/J	.	8g/J	.	.	.	.	.	.	.	8cc\	-ta	.	.	.	.	.	.	.	.
!	!	!	!	!	!	!	!	!	!	!	!	!	!	!	!	!	!	!	!LO:LB:g=original	!	!	!
=7	=7	=7	=7	=7	=7	=7	=7	=7	=7	=7	=7	=7	=7	=7	=7	=7	=7	=7	=7	=7	=7	=7
*	*	*	*	*	*	*	*	*	*	*	*ij	*	*	*	*	*	*	*	*	*	*	*
4C/	n6	.	8r	.	8r	.	1r	.	1ryy	4An/	A-	.	4an\	mun-	.	.	.	.	4C/	.	.	.
.	.	.	8e-/L	.	8f/L	.	.	.	.	.	.	.	.	.	.	.	.	.	.	.	.	.
4r	.	.	8e-/	.	8f/	.	.	.	.	4A/	-gnus	.	4a\	-di	.	.	.	.	4r	.	.	.
.	.	.	8e-/J	.	8f/J	.	.	.	.	.	.	.	.	.	.	.	.	.	.	.	.	.
4BB-X/	8	.	8r	.	8r	.	.	.	.	4B-X/	de-	.	2r	.	.	.	.	.	4BB-X/	.	.	.
.	.	.	8d/L	.	8f/L	.	.	.	.	.	.	.	.	.	.	.	.	.	.	.	.	.
4r	.	.	8d/	.	8f/	.	.	.	.	8B-/	-i	.	.	.	.	.	.	.	4r	.	.	.
*	*	*	*	*	*	*	*	*	*	*	*Xij	*	*	*	*	*	*	*	*	*	*	*
.	.	.	8d/J	.	8f/J	.	.	.	.	8B-/	qui	.	.	.	.	.	.	.	.	.	.	.
!	!	!	!	!	!	!	!	!	!	!LO:LB:g=original	!	!	!	!	!	!	!	!	!	!	!	!
=8	=8	=8	=8	=8	=8	=8	=8	=8	=8	=8	=8	=8	=8	=8	=8	=8	=8	=8	=8	=8	=8	=8
!	!	!	!	!	!	!	!	!	!	!	!	!	!LO:TX:a:t=1:color=grey	!	!	!	!	!	!	!	!	!
4E-\	5	.	8B-/L	.	8c/L	.	4E-\	A-	1ryy	4c\	tol-	.	1r	.	.	.	.	.	4E-\	.	.	.
.	.	.	8B-/	.	8c/	.	.	.	.	.	.	.	.	.	.	.	.	.	.	.	.	.
4F\	6	.	8B-/	.	8d/	.	4F\	-gnus	.	8d\	-lis	.	.	.	.	.	.	.	4F\	.	.	.
.	.	.	8B-/J	.	8d/J	.	.	.	.	8d\	pec-	.	.	.	.	.	.	.	.	.	.	.
4G\	6	.	8B-/L	.	8e-/L	.	4G\	de-	.	4e-\	-ca-	.	.	.	.	.	.	.	4G\	.	.	.
.	.	.	8B-/	.	8e-/	.	.	.	.	.	.	.	.	.	.	.	.	.	.	.	.	.
4F\	6	.	8B-/	.	8d/	.	8F\	-i	.	4d\	-ta	.	.	.	.	.	.	.	4F\	.	.	.
.	.	.	8B-/J	.	8d/J	.	8F\	qui	.	.	.	.	.	.	.	.	.	.	.	.	.	.
!	!	!	!	!	!LO:LB:g=original	!	!	!	!	!	!	!	!LO:LB:g=original	!	!	!	!	!	!	!	!	!
=9	=9	=9	=9	=9	=9	=9	=9	=9	=9	=9	=9	=9	=9	=9	=9	=9	=9	=9	=9	=9	=9	=9
*rep	*	*	*	*	*	*	*	*	*	*	*	*	*	*	*	*	*	*	*	*	*	*
4E-\	6	.	8B-/L	.	8c/L	.	4E-\	tol-	1ryy	4c\	mun-	.	4.b-\	Do-	0r	0r	0r	0r	4E-\	.	0r	0r
.	.	.	8B-/	.	8c/	.	.	.	.	.	.	.	.	.	.	.	.	.	.	.	.	.
4F\	6	.	8B-/	.	8d/	.	8F\	-lis	.	4d\	-di	.	.	.	.	.	.	.	4F\	.	.	.
.	.	.	8B-/J	.	8d/J	.	8F\	pec-	.	.	.	.	8b-\	-na	.	.	.	.	.	.	.	.
4G\	6	.	8B-/L	.	8e-/L	.	4G\	-ca-	.	4e-\	Do-	.	4b-\	e-	.	.	.	.	4G\	.	.	.
.	.	.	8B-/	.	8e-/	.	.	.	.	.	.	.	.	.	.	.	.	.	.	.	.	.
4F\	6	.	8B-/	.	8d/	.	4F\	-ta	.	4d\	-na	.	4b-\	-is	.	.	.	.	4F\	.	.	.
.	.	.	8B-/J	.	8d/J	.	.	.	.	.	.	.	.	.	.	.	.	.	.	.	.	.
*Xrep	*	*	*	*	*	*	*	*	*	*	*	*	*	*	*	*	*	*	*	*	*	*
=10	=10	=10	=10	=10	=10	=10	=10	=10	=10	=10	=10	=10	=10	=10	=10	=10	=10	=10	=10	=10	=10	=10
*2\right	*	*	*	*	*tremolo	*	*2\right	*	*	*2\right	*	*	*	*	*	*	*	*	*2\right	*	*	*
2E-\	6_	.	8B-/L	.	8c/L	.	2.E-\	mun-	1ryy	2c\	e-	.	4.b-\	re-	.	.	.	.	2E-\	.	.	.
.	.	.	8B-/	.	8c/	.	.	.	.	.	.	.	.	.	.	.	.	.	.	.	.	.
.	.	.	8B-/	.	8c/	.	.	.	.	.	.	.	.	.	.	.	.	.	.	.	.	.
.	.	.	8B-/J	.	8c/J	.	.	.	.	.	.	.	8g\	-qui-	.	.	.	.	.	.	.	.
2En\	.	.	8B-/L	.	8c/L	.	.	.	.	2c\	-i	.	2g\	-em	.	.	.	.	2En\	.	.	.
.	.	.	8B-/	.	8c/	.	.	.	.	.	.	.	.	.	.	.	.	.	.	.	.	.
!	!	!	!	!	!	!	!LO:LB:g=original	!	!	!	!	!	!	!	!	!	!	!	!	!	!	!
.	.	.	8B-/	.	8c/	.	8En\	-di	.	.	.	.	.	.	.	.	.	.	.	.	.	.
.	.	.	8B-/J	.	8c/J	.	8E\	pec-	.	.	.	.	.	.	.	.	.	.	.	.	.	.
!LO:LB:g=original	!	!	!LO:LB:g=original	!	!	!	!	!	!	!	!	!	!	!	!	!	!	!	!	!	!	!
=11	=11	=11	=11	=11	=11	=11	=11	=11	=11	=11	=11	=11	=11	=11	=11	=11	=11	=11	=11	=11	=11	=11
2F\	6 4	.	8B-/L	.	8c/L	.	4F\	-ca-	1ryy	2.c\	re-	.	4f/	Sem-	1r	1r	1r	1r	2F\	.	1r	1r
.	.	.	8B-/	.	8c/	.	.	.	.	.	.	.	.	.	.	.	.	.	.	.	.	.
.	.	.	8B-/	.	8c/	.	4F\	-ta	.	.	.	.	4f/	-pi-	.	.	.	.	.	.	.	.
.	.	.	8B-/J	.	8c/J	.	.	.	.	.	.	.	.	.	.	.	.	.	.	.	.	.
2FF/	3	.	8An/L	.	8c/L	.	2F\	mun-	.	.	.	.	2f/	-ter-	.	.	.	.	2FF/	.	.	.
.	.	.	8An/	.	8c/	.	.	.	.	.	.	.	.	.	.	.	.	.	.	.	.	.
.	.	.	8An/	.	8c/	.	.	.	.	4c\	-qui-	.	.	.	.	.	.	.	.	.	.	.
.	.	.	8An/J	.	8c/J	.	.	.	.	.	.	.	.	.	.	.	.	.	.	.	.	.
*	*	*	*Xtremolo	*	*Xtremolo	*	*	*	*	*	*	*	*	*	*	*	*	*	*	*	*	*
!	!	!	!LO:LB:g=original	!	!	!	!	!	!	!	!	!	!	!	!	!	!	!	!	!	!	!
=12	=12	=12	=12	=12	=12	=12	=12	=12	=12	=12	=12	=12	=12	=12	=12	=12	=12	=12	=12	=12	=12	=12
!LO:TX:a:t=pedal	!	!	!	!	!	!	!	!	!	!	!	!	!	!	!	!	!	!	!	!	!	!
1BB-	.	.	4B-/	.	4d/	.	4BB-/	-di	1ryy	2d\	-em	.	4e-/	-nam	4r	4r	4r	4r	1BB-	.	4r	4r
.	.	.	4f/	.	8a-X/L	.	4r	.	.	.	.	.	4r	.	4B-/	4b-/	4B-/	4f\	.	.	4ff\	4aa-\
.	.	.	.	.	8b-/J	.	.	.	.	.	.	.	.	.	.	.	.	.	.	.	.	.
.	.	.	4e-/	.	8g/L	.	2r	.	.	2r	.	.	2r	.	4e-/	4g/	4e-/	4g\	.	.	4ee-\	4gg\
.	.	.	.	.	8b-/	.	.	.	.	.	.	.	.	.	.	.	.	.	.	.	.	.
.	.	.	4d/	.	8f/	.	.	.	.	.	.	.	.	.	4B-/	4b-/	4B-/	4f\	.	.	4dd\	4ff\
.	.	.	.	.	8b-/J	.	.	.	.	.	.	.	.	.	.	.	.	.	.	.	.	.
=13	=13	=13	=13	=13	=13	=13	=13	=13	=13	=13	=13	=13	=13	=13	=13	=13	=13	=13	=13	=13	=13	=13
!	!	!LO:DY:b	!	!	!	!	!	!	!	!LO:TX:a:t=4.	!	!	!LO:TX:a:t=6:color=grey	!	!	!	!	!	!	!LO:DY:a	!	!
1E-	.	pp	8G/L	.	2.e-/	.	2.E-\	Lux	1ryy	00r	.	.	00r	.	4r	4r	4r	4r	1E-	p	4r	4r
.	.	.	8B-/	.	.	.	.	.	.	.	.	.	.	.	.	.	.	.	.	.	.	.
.	.	.	8e-/	.	.	.	.	.	.	.	.	.	.	.	4e-/	4g/	4G/	4e-\	.	.	4g/	4ee-\
.	.	.	8B-/J	.	.	.	.	.	.	.	.	.	.	.	.	.	.	.	.	.	.	.
.	.	.	8G/L	.	.	.	.	.	.	.	.	.	.	.	4e-/	4g/	4G/	4e-\	.	.	4g/	4ee-\
.	.	.	8B-/	.	.	.	.	.	.	.	.	.	.	.	.	.	.	.	.	.	.	.
.	.	.	8e-/	.	8cc\L	.	8c\L	e-	.	.	.	.	.	.	4e-/	4g/	4G/	4e-\	.	.	4g/	8ccc\L
.	.	.	8B-/J	.	8cc\J	.	8B-\J	.	.	.	.	.	.	.	.	.	.	.	.	.	.	8bb-\J
=14	=14	=14	=14	=14	=14	=14	=14	=14	=14	=14	=14	=14	=14	=14	=14	=14	=14	=14	=14	=14	=14	=14
*	*	*	*	*	*2\right	*	*	*	*	*	*	*	*	*	*	*	*	*	*	*	*	*2\right
!	!	!	!	!	!	!	!	!	!	!	!	!	!	!	!	!	!	!	!LO:SIC:v:o=1E-:t=poprawione ołówkiem	!	!	!
1D	.	.	8A-/L	.	2b-\	.	2B-\	-ter-	1ryy	.	.	.	.	.	4r	4r	4r	4r	D	.	4b-\	2bb-\
.	.	.	8B-/	.	.	.	.	.	.	.	.	.	.	.	.	.	.	.	.	.	.	.
.	.	.	8d/	.	.	.	.	.	.	.	.	.	.	.	4B-/	4b-/	4B-/	4f\	.	.	4b-\	.
.	.	.	8B-/J	.	.	.	.	.	.	.	.	.	.	.	.	.	.	.	.	.	.	.
.	.	.	8A-/L	.	8b-\L	.	(8B-\L	.	.	.	.	.	.	.	4B-/	4b-/	4B-/	4f\	.	.	4b-\	8bb-\L
.	.	.	8B-/	.	8cc\	.	8c\	.	.	.	.	.	.	.	.	.	.	.	.	.	.	(8ccc\
.	.	.	8d/	.	8b-\	.	8B-\	.	.	.	.	.	.	.	4B-/	4b-/	4B-/	4f\	.	.	4b-\	8bb-\
.	.	.	8B-/J	.	8a-\J	.	8A-\J)	.	.	.	.	.	.	.	.	.	.	.	.	.	.	8aa-\J)
!	!	!	!	!	!	!	!	!	!	!	!	!	!	!	!	!LO:LB:g=original	!	!	!	!	!	!LO:LB:g=original
=15	=15	=15	=15	=15	=15	=15	=15	=15	=15	=15	=15	=15	=15	=15	=15	=15	=15	=15	=15	=15	=15	=15
1E-	.	.	8G/L	.	4g/	.	4G\	-na	1ryy	.	.	.	.	.	4r	4r	4r	4r	1E-	.	4b-\	8gg\L
.	.	.	8B-/	.	.	.	.	.	.	.	.	.	.	.	.	.	.	.	.	.	.	8ee-\
.	.	.	8e-/	.	4ee-\	.	4r	.	.	.	.	.	.	.	4e-/	4g/	4G/	4e-\	.	.	4cc\	8dd\
.	.	.	8B-/J	.	.	.	.	.	.	.	.	.	.	.	.	.	.	.	.	.	.	8cc\J
.	.	.	8G/L	.	4dd\	.	2r	.	.	.	.	.	.	.	4e-/	4g/	4G/	4e-\	.	.	4b-\	8gg\L
.	.	.	8B-/	.	.	.	.	.	.	.	.	.	.	.	.	.	.	.	.	.	.	8ee-\
.	.	.	8d/	.	4cc\	.	.	.	.	.	.	.	.	.	4e-/	4g/	4G/	4e-\	.	.	4a-\	8dd\
.	.	.	8B-/J	.	.	.	.	.	.	.	.	.	.	.	.	.	.	.	.	.	.	8cc\J
!	!	!	!	!	!LO:LB:g=original	!	!	!	!	!	!	!	!	!	!	!	!	!LO:LB:g=original	!	!	!LO:LB:g=original	!
=16	=16	=16	=16	=16	=16	=16	=16	=16	=16	=16	=16	=16	=16	=16	=16	=16	=16	=16	=16	=16	=16	=16
1BB-	.	.	8A-/L	.	2b-\	.	2.F\	lu-	1ryy	.	.	.	.	.	4r	4r	4r	4r	1BB-	.	4g/	2bb-\
.	.	.	8B-/	.	.	.	.	.	.	.	.	.	.	.	.	.	.	.	.	.	.	.
.	.	.	8d/	.	.	.	.	.	.	.	.	.	.	.	4B-/	4b-/	4B-/	4f\	.	.	4g/	.
.	.	.	8B-/J	.	.	.	.	.	.	.	.	.	.	.	.	.	.	.	.	.	.	.
.	.	.	8A-/L	.	8b-\L	.	.	.	.	.	.	.	.	.	4B-/	4b-/	4B-/	4f\	.	.	4g/	8bb-\L
.	.	.	8B-/	.	8cc\	.	.	.	.	.	.	.	.	.	.	.	.	.	.	.	.	8ccc\
.	.	.	8d/	.	8b-\	.	4F\	-ce-	.	.	.	.	.	.	4B-/	4b-/	4B-/	4f\	.	.	4g/	8bb-\
.	.	.	8B-/J	.	8a-\J	.	.	.	.	.	.	.	.	.	.	.	.	.	.	.	.	8aa-\J
!	!	!	!	!	!	!	!LO:LB:g=original	!	!	!LO:LB:g=original	!	!	!	!	!LO:LB:g=original	!	!	!	!	!	!	!
=17	=17	=17	=17	=17	=17	=17	=17	=17	=17	=17	=17	=17	=17	=17	=17	=17	=17	=17	=17	=17	=17	=17
1E-	.	.	8G/L	.	4g/	.	4E-\	-at	1ryy	4r	.	.	0r	.	4r	4r	4r	4r	1E-	.	4b-\	4gg\
.	.	.	8B-/	.	.	.	.	.	.	.	.	.	.	.	.	.	.	.	.	.	.	.
.	.	.	8e-/	.	4ee-/	.	4r	.	.	4e-\	cum	.	.	.	4e-/	4g/	4G/	4e-\	.	.	4g\	4ee-\
.	.	.	8B-/J	.	.	.	.	.	.	.	.	.	.	.	.	.	.	.	.	.	.	.
.	.	.	8G/L	.	4gg\	.	2r	.	.	4g\	san-	.	.	.	4e-/	4g/	4G/	4e-\	.	.	4b-\	4gg\
.	.	.	8B-/	.	.	.	.	.	.	.	.	.	.	.	.	.	.	.	.	.	.	.
.	.	.	8e-/	.	4ee-\	.	.	.	.	8f\L	-ctis	.	.	.	4e-/	4g/	4G/	4e-\	.	.	8a-\L	8ff\L
.	.	.	8B-/J	.	.	.	.	.	.	8e-\J	.	.	.	.	.	.	.	.	.	.	8g\J	8ee-\J
!	!	!	!LO:LB:g=original	!	!	!	!	!	!	!	!	!	!	!	!	!	!LO:LB:g=original	!	!	!	!	!
=18	=18	=18	=18	=18	=18	=18	=18	=18	=18	=18	=18	=18	=18	=18	=18	=18	=18	=18	=18	=18	=18	=18
1D	.	.	8A-/L	.	2b-\	.	1D	e-	1ryy	2b-\	tu-	.	.	.	4r	4r	4r	4r	1D	.	4g/	2bb-\
.	.	.	8B-/	.	.	.	.	.	.	.	.	.	.	.	.	.	.	.	.	.	.	.
.	.	.	8f/	.	.	.	.	.	.	.	.	.	.	.	4B-/	4b-/	4B-/	4f\	.	.	4g/	.
.	.	.	8B-/J	.	.	.	.	.	.	.	.	.	.	.	.	.	.	.	.	.	.	.
.	.	.	8A-/L	.	8b-\L	.	.	.	.	8b-\L	.	.	.	.	4B-/	4b-/	4B-/	4f\	.	.	4g/	8bb-\L
.	.	.	8B-/	.	8cc\	.	.	.	.	8cc\	.	.	.	.	.	.	.	.	.	.	.	8ccc\
.	.	.	8f/	.	8b-\	.	.	.	.	8b-\	.	.	.	.	4B-/	4b-/	4B-/	4f\	.	.	4g/	8bb-\
.	.	.	8B-/J	.	8a-\J	.	.	.	.	8a-\J	.	.	.	.	.	.	.	.	.	.	.	8aa-\J
=19	=19	=19	=19	=19	=19	=19	=19	=19	=19	=19	=19	=19	=19	=19	=19	=19	=19	=19	=19	=19	=19	=19
!	!	!	!	!	!LO:TX:t=P:problem=tt. 19-20 zapisane repetycją	!	!	!	!	!	!	!	!	!	!	!	!	!	!	!	!	!
1E-	.	.	8G/L	.	4g/yy	.	4E-\	-i	1ryy	4g\	-is	.	4r	.	4r	4r	4r	4r	1E-	.	4b-\	4gg\
.	.	.	8B-/	.	.	.	.	.	.	.	.	.	.	.	.	.	.	.	.	.	.	.
.	.	.	8e-/	.	4ee-/yy	.	4r	.	.	4r	.	.	4ee-\	in	4e-/	4g/	4G/	4e-\	.	.	4g/	4ee-\
.	.	.	8B-/J	.	.	.	.	.	.	.	.	.	.	.	.	.	.	.	.	.	.	.
.	.	.	8A-/L	.	4gg\yy	.	2r	.	.	2r	.	.	4gg\	e-	4e-/	4g/	4G/	4e-\	.	.	4b-\	4gg\
.	.	.	8B-/	.	.	.	.	.	.	.	.	.	.	.	.	.	.	.	.	.	.	.
.	.	.	8dn/	.	4ee-\yy	.	.	.	.	.	.	.	4ee-\	-ter-	4e-/	4g/	4G/	4e-\	.	.	4g/	4ee-\
.	.	.	8B-/J	.	.	.	.	.	.	.	.	.	.	.	.	.	.	.	.	.	.	.
!	!	!	!	!	!	!	!	!	!	!	!	!	!LO:LB:g=original	!	!	!	!	!	!	!	!	!
=20	=20	=20	=20	=20	=20	=20	=20	=20	=20	=20	=20	=20	=20	=20	=20	=20	=20	=20	=20	=20	=20	=20
1BB-	.	.	8A-/L	.	2b-\yy	.	4BB-/	in	1ryy	4f\	in	.	2b-\	.	4r	4r	4r	4r	1BB-	.	4b-\	2bb-\
.	.	.	8B-/	.	.	.	.	.	.	.	.	.	.	.	.	.	.	.	.	.	.	.
.	.	.	8d/	.	.	.	4BB-/	[e-]	.	4f\	de-	.	.	.	4B-/	4b-/	4B-/	4f\	.	.	4b-\	.
!	!	!	!	!	!	!	!	!	!	!	!	!LO:DY:a	!	!	!	!	!	!	!	!	!	!
.	.	.	8B-/J	.	.	.	.	.	.	.	.	f	.	.	.	.	.	.	.	.	.	.
.	.	.	8A-/L	.	8b-\Lyy	.	2BB-/	-ter-	.	2f\	-ter-	.	8b-\L	.	4B-/	4b-/	4B-/	4f\	.	.	4b-\	8bb-\L
.	.	.	8B-/	.	8cc\yy	.	.	.	.	.	.	.	8cc\	.	.	.	.	.	.	.	.	8ccc\
.	.	.	8d/	.	8b-\yy	.	.	.	.	.	.	.	8b-\	.	4B-/	4b-/	4B-/	4f\	.	.	4b-\	8bb-\
.	.	.	8B-/J	.	8a-\Jyy	.	.	.	.	.	.	.	8a-\J	.	.	.	.	.	.	.	.	8aa-\J
!	!	!	!	!	!	!	!	!	!	!	!	!	!	!	!	!	!	!	!	!	!	!LO:LB:g=original
=21	=21	=21	=21	=21	=21	=21	=21	=21	=21	=21	=21	=21	=21	=21	=21	=21	=21	=21	=21	=21	=21	=21
1E-	.	.	8G/L	.	4g/	.	4E-\	-num	1ryy	4e-\	-num	.	4g\	-num	4r	4r	4r	4r	1E-	.	4g/	4gg\
.	.	.	8B-/	.	.	.	.	.	.	.	.	.	.	.	.	.	.	.	.	.	.	.
.	.	.	8e-/	.	4e-/	.	4r	.	.	4r	.	.	4r	.	4e-/	4g/	4G/	4e-\	.	.	4e-/	4ee-\
.	.	.	8B-/J	.	.	.	.	.	.	.	.	.	.	.	.	.	.	.	.	.	.	.
.	.	.	8G/L	.	4g/	.	2r	.	.	2r	.	.	2r	.	4e-/	4g/	4G/	4e-\	.	.	4g/	4gg\
.	.	.	8B-/	.	.	.	.	.	.	.	.	.	.	.	.	.	.	.	.	.	.	.
.	.	.	8e-/	.	4b-/	.	.	.	.	.	.	.	.	.	4e-/	4g/	4G/	4e-\	.	.	4b-/	4bb-\
.	.	.	8B-/J	.	.	.	.	.	.	.	.	.	.	.	.	.	.	.	.	.	.	.
=22	=22	=22	=22	=22	=22	=22	=22	=22	=22	=22	=22	=22	=22	=22	=22	=22	=22	=22	=22	=22	=22	=22
!	!	!	!	!	!	!	!	!	!	!LO:TX:a:t=1.	!	!	!LO:TX:a:t=2:color=grey	!	!	!	!	!	!	!	!LO:TX:a:t=1	!LO:TX:a:t=1
1G	.	.	8A-/L	.	4.dd-X\	.	1r	.	1ryy	1r	.	.	0r	.	4r	4r	4r	4r	1G	.	1r	1r
.	.	.	8d-X/	.	.	.	.	.	.	.	.	.	.	.	.	.	.	.	.	.	.	.
.	.	.	8e-/	.	.	.	.	.	.	.	.	.	.	.	4e-/	4e-/	4E-/	4e-\	.	.	.	.
.	.	.	8d-/J	.	16cc\LL	.	.	.	.	.	.	.	.	.	.	.	.	.	.	.	.	.
.	.	.	.	.	16dd-\JJ	.	.	.	.	.	.	.	.	.	.	.	.	.	.	.	.	.
.	.	.	8A-/L	.	4ee-\	.	.	.	.	.	.	.	.	.	4e-/	4e-/	4E-/	4e-\	.	.	.	.
.	.	.	8d-X/	.	.	.	.	.	.	.	.	.	.	.	.	.	.	.	.	.	.	.
.	.	.	8e-/	.	4dd-\	.	.	.	.	.	.	.	.	.	4e-/	4e-/	4E-/	4e-\	.	.	.	.
.	.	.	8d-/J	.	.	.	.	.	.	.	.	.	.	.	.	.	.	.	.	.	.	.
!	!	!	!	!	!	!	!	!	!	!LO:LB:g=original	!	!	!	!	!	!LO:LB:g=original	!	!LO:LB:g=original	!LO:LB:g=original	!	!	!
=23	=23	=23	=23	=23	=23	=23	=23	=23	=23	=23	=23	=23	=23	=23	=23	=23	=23	=23	=23	=23	=23	=23
!	!	!	!	!	!	!	!	!	!	!	!	!	!	!	!	!	!	!	!	!	!LO:TX:a:t=b	!
1A-	.	.	8A-/L	.	2cc\	.	4A-X\	Re-	1ryy	4c\	Re-	.	.	.	4e-/	4e-/	4E-/	4e-\	1A-	.	2a-/	2cc\
.	.	.	8c/	.	.	.	.	.	.	.	.	.	.	.	.	.	.	.	.	.	.	.
.	.	.	8e-/	.	.	.	4A-\	-qui-	.	4c\	-qui-	.	.	.	4r	4r	4r	4r	.	.	.	.
.	.	.	8c/J	.	.	.	.	.	.	.	.	.	.	.	.	.	.	.	.	.	.	.
!	!	!	!LO:LB:g=original	!	!	!	!	!	!	!	!	!	!	!	!	!	!	!	!	!	!	!
.	.	.	8A-/L	.	2r	.	4A-\	-em	.	4c\	-em	.	.	.	2r	2r	2r	2r	.	.	2r	2r
.	.	.	8c/	.	.	.	.	.	.	.	.	.	.	.	.	.	.	.	.	.	.	.
.	.	.	8e-/	.	.	.	4A-\	e-	.	4c\	e-	.	.	.	.	.	.	.	.	.	.	.
.	.	.	8c/J	.	.	.	.	.	.	.	.	.	.	.	.	.	.	.	.	.	.	.
!	!	!	!	!	!	!	!	!	!	!	!	!	!	!	!	!	!	!	!	!	!LO:LB:g=original	!
=24	=24	=24	=24	=24	=24	=24	=24	=24	=24	=24	=24	=24	=24	=24	=24	=24	=24	=24	=24	=24	=24	=24
!	!	!	!	!	!	!	!	!	!	!	!	!	!	!	!LO:TX:a:t=2	!	!LO:TX:a:t=2	!LO:TX:a:t=2	!	!	!LO:TX:a:t=2	!LO:TX:a:t=2
1F	.	.	8A-/L	.	2.aa-\	.	4F\	-ter-	1ryy	4f\	-ter-	.	2.aa-\	in	0r	0r	0r	0r	1F	.	0r	0r
.	.	.	8c/	.	.	.	.	.	.	.	.	.	.	.	.	.	.	.	.	.	.	.
.	.	.	8f/	.	.	.	4F\	-nam	.	4f\	-nam	.	.	.	.	.	.	.	.	.	.	.
.	.	.	8c/J	.	.	.	.	.	.	.	.	.	.	.	.	.	.	.	.	.	.	.
.	.	.	8A-/L	.	.	.	4F\	do-	.	4f\	do-	.	.	.	.	.	.	.	.	.	.	.
.	.	.	8c/	.	.	.	.	.	.	.	.	.	.	.	.	.	.	.	.	.	.	.
.	.	.	8f/	.	8gg\L	.	4F\	-na	.	4f\	-na	.	8gg\L	e-	.	.	.	.	.	.	.	.
.	.	.	8c/J	.	8ff\J	.	.	.	.	.	.	.	8ff\J	.	.	.	.	.	.	.	.	.
!LO:LB:g=original	!	!	!	!	!LO:LB:g=original	!	!LO:LB:g=original	!	!	!	!	!	!	!	!	!	!	!	!	!	!	!
=25	=25	=25	=25	=25	=25	=25	=25	=25	=25	=25	=25	=25	=25	=25	=25	=25	=25	=25	=25	=25	=25	=25
2B-\	.	.	8G/L	.	2.ee-\	.	4BB-/	e-	1ryy	4e-\	e-	.	2.ee-\	-ter-	.	.	.	.	2B-\	.	.	.
.	.	.	8B-/	.	.	.	.	.	.	.	.	.	.	.	.	.	.	.	.	.	.	.
.	.	.	8e-/	.	.	.	4BB-/	-i	.	4e-\	-i	.	.	.	.	.	.	.	.	.	.	.
.	.	.	8B-/J	.	.	.	.	.	.	.	.	.	.	.	.	.	.	.	.	.	.	.
2BB-/	.	.	8A-/L	.	.	.	4BB-/	Do-	.	4d\	Do-	.	.	.	.	.	.	.	2BB-/	.	.	.
.	.	.	8B-/	.	.	.	.	.	.	.	.	.	.	.	.	.	.	.	.	.	.	.
.	.	.	8dn/	.	8gg\L	.	4BB-/	-mi-	.	4d\	-mi-	.	8gg\L	.	.	.	.	.	.	.	.	.
.	.	.	8B-/J	.	8ff\J	.	.	.	.	.	.	.	8ff\J	.	.	.	.	.	.	.	.	.
!	!	!	!	!	!	!	!	!	!	!	!	!	!	!	!LO:LB:g=original	!	!	!	!	!	!	!
=26	=26	=26	=26	=26	=26	=26	=26	=26	=26	=26	=26	=26	=26	=26	=26	=26	=26	=26	=26	=26	=26	=26
1E-	.	.	8G/L	.	4ee-\	.	4E-\	-ne	1ryy	4e-\	-ni	.	4ee-\	-num.	4r	4r	4r	4r	1E-	.	4e-/	4ee-\
.	.	.	8B-/	.	.	.	.	.	.	.	.	.	.	.	.	.	.	.	.	.	.	.
.	.	.	8e-/	.	4e-/	.	4r	.	.	4r	.	.	4r	.	4e-/	4g/	4G/	4e-\	.	.	4e-/	4ee-\
.	.	.	8B-/J	.	.	.	.	.	.	.	.	.	.	.	.	.	.	.	.	.	.	.
.	.	.	8G/L	.	4g/	.	2r	.	.	2r	.	.	2r	.	4e-/	4g/	4G/	4e-\	.	.	4g/	4gg\
.	.	.	8B-/	.	.	.	.	.	.	.	.	.	.	.	.	.	.	.	.	.	.	.
.	.	.	8e-/	.	4b-/	.	.	.	.	.	.	.	.	.	4e-/	4g/	4G/	4e-\	.	.	4b-/	4bb-\
.	.	.	8B-/J	.	.	.	.	.	.	.	.	.	.	.	.	.	.	.	.	.	.	.
!	!	!	!	!	!	!	!	!	!	!	!	!	!	!	!	!	!LO:LB:g=original	!	!	!	!	!
=27	=27	=27	=27	=27	=27	=27	=27	=27	=27	=27	=27	=27	=27	=27	=27	=27	=27	=27	=27	=27	=27	=27
!	!	!	!	!	!	!	!LO:TX:a:t=1	!	!	!LO:TX:a:t=1.	!	!	!LO:TX:a:t=2:color=grey	!	!	!	!	!	!	!	!LO:TX:a:t=1	!LO:TX:a:t=1
1G	.	.	8B-/L	.	4.dd-X\	.	1r	.	1ryy	1r	.	.	0r	.	4r	4r	4r	4r	1G	.	1r	1r
.	.	.	8d-X/	.	.	.	.	.	.	.	.	.	.	.	.	.	.	.	.	.	.	.
.	.	.	8e-/	.	.	.	.	.	.	.	.	.	.	.	4e-/	4e-/	4E-/	4e-\	.	.	.	.
.	.	.	8B-/J	.	16cc\LL	.	.	.	.	.	.	.	.	.	.	.	.	.	.	.	.	.
.	.	.	.	.	16dd-\JJ	.	.	.	.	.	.	.	.	.	.	.	.	.	.	.	.	.
.	.	.	8B-/L	.	4ee-\	.	.	.	.	.	.	.	.	.	4e-/	4e-/	4E-/	4e-\	.	.	.	.
.	.	.	8d-/	.	.	.	.	.	.	.	.	.	.	.	.	.	.	.	.	.	.	.
.	.	.	8e-/	.	4b-\	.	.	.	.	.	.	.	.	.	4e-/	4e-/	4E-/	4e-\	.	.	.	.
.	.	.	8d-/J	.	.	.	.	.	.	.	.	.	.	.	.	.	.	.	.	.	.	.
=28	=28	=28	=28	=28	=28	=28	=28	=28	=28	=28	=28	=28	=28	=28	=28	=28	=28	=28	=28	=28	=28	=28
!	!	!	!	!	!	!	!	!	!	!	!	!	!	!	!	!	!	!	!	!	!LO:TX:a:t=b	!
1A-	.	.	8A-/L	.	2cc\	.	4r	.	1ryy	4r	.	.	.	.	4e-/	4e-/	4E-/	4e-\	1A-	.	2a-/	2cc\
.	.	.	8c/	.	.	.	.	.	.	.	.	.	.	.	.	.	.	.	.	.	.	.
.	.	.	8e-/	.	.	.	4A-\	cun	.	4c\	Cum	.	.	.	4r	4r	4r	4r	.	.	.	.
.	.	.	8c/J	.	.	.	.	.	.	.	.	.	.	.	.	.	.	.	.	.	.	.
.	.	.	8A-/L	.	2r	.	4A-\	S(an)-	.	4c\	sanc-	.	.	.	2r	2r	2r	2r	.	.	2r	2r
.	.	.	8c/	.	.	.	.	.	.	.	.	.	.	.	.	.	.	.	.	.	.	.
.	.	.	8e-/	.	.	.	4A-\	-ctis	.	4c\	-tis	.	.	.	.	.	.	.	.	.	.	.
.	.	.	8c/J	.	.	.	.	.	.	.	.	.	.	.	.	.	.	.	.	.	.	.
!	!	!	!LO:LB:g=original	!	!	!	!	!	!	!LO:LB:g=original	!	!	!LO:LB:g=original	!	!	!	!	!	!	!	!	!
=29	=29	=29	=29	=29	=29	=29	=29	=29	=29	=29	=29	=29	=29	=29	=29	=29	=29	=29	=29	=29	=29	=29
*	*	*	*	*	*	*	*	*	*	*	*	*	*	*	*	*	*	*	*	*	*2\right	*
!	!	!	!	!	!	!	!	!	!	!	!	!	!	!	!LO:TX:a:t=3	!LO:TX:a:t=3.	!LO:TX:a:t=3	!LO:TX:a:t=3	!	!	!	!
1F	.	.	8A-/L	.	2.aa-\	.	4F\	tu-	1ryy	4f\	tu-	.	2.aa-X\	qui-	0r	0r	0r	0r	1F	.	2.ff\	2.aa-\
.	.	.	8c/	.	.	.	.	.	.	.	.	.	.	.	.	.	.	.	.	.	.	.
.	.	.	8f/	.	.	.	4F\	-is	.	4f\	-is	.	.	.	.	.	.	.	.	.	.	.
.	.	.	8c/J	.	.	.	.	.	.	.	.	.	.	.	.	.	.	.	.	.	.	.
.	.	.	8A-/L	.	.	.	4F\	in	.	4f\	in	.	.	.	.	.	.	.	.	.	.	.
.	.	.	8c/	.	.	.	.	.	.	.	.	.	.	.	.	.	.	.	.	.	.	.
.	.	.	8f/	.	8gg\L	.	4F\	e-	.	4f\	e-	.	8gg\L	-a	.	.	.	.	.	.	8ee-\L	8gg\L
.	.	.	8c/J	.	8ff\J	.	.	.	.	.	.	.	8ff\J	.	.	.	.	.	.	.	8dd\J	8ff\J
=30	=30	=30	=30	=30	=30	=30	=30	=30	=30	=30	=30	=30	=30	=30	=30	=30	=30	=30	=30	=30	=30	=30
1B-	.	.	8G/L	.	2.bb-\	.	2BB-/	-ter-	1ryy	2e-\	-ter-	.	2.bb-\	qui-	.	.	.	.	2B-\	.	2.gg\	2.bb-\
.	.	.	8B-/	.	.	.	.	.	.	.	.	.	.	.	.	.	.	.	.	.	.	.
.	.	.	8e-/	.	.	.	.	.	.	.	.	.	.	.	.	.	.	.	.	.	.	.
.	.	.	8B-/J	.	.	.	.	.	.	.	.	.	.	.	.	.	.	.	.	.	.	.
!	!	!	!	!	!	!	!LO:TX:a:t=b.	!	!	!	!	!	!	!	!	!	!	!	!	!	!	!
.	.	.	8G/L	.	.	.	2BB-/	-nam	.	2e-\	-num	.	.	.	.	.	.	.	2BB-/	.	.	.
.	.	.	8B-/	.	.	.	.	.	.	.	.	.	.	.	.	.	.	.	.	.	.	.
!	!	!	!	!	!	!	!	!	!	!	!	!	!	!	!	!	!	!	!	!	!LO:TX:t=P:problem=mixed beam	!
.	.	.	8e-/	.	8gg\L	.	.	.	.	.	.	.	8gg\L	-a	.	.	.	.	.	.	8ee-\L	8gg\L
.	.	.	8B-/J	.	8ee-\J	.	.	.	.	.	.	.	8ee-\J	.	.	.	.	.	.	.	8g/J	8ee-\J
=31	=31	=31	=31	=31	=31	=31	=31	=31	=31	=31	=31	=31	=31	=31	=31	=31	=31	=31	=31	=31	=31	=31
!	!	!	!	!	!	!	!	!	!	!	!	!	!	!	!	!	!	!	!LO:TX:t=P:problem=brak taktu	!	!	!
1BB-	.	.	8A-/L	.	2b-\	.	4BB-/	qui-	1ryy	4d\	qui-	.	2b-\	pi-	1r	1r	1r	1r	1ryy	.	2gg\	2bb-\
.	.	.	8B-/	.	.	.	.	.	.	.	.	.	.	.	.	.	.	.	.	.	.	.
.	.	.	8d/	.	.	.	4BB-/	-a	.	4d\	-a	.	.	.	.	.	.	.	.	.	.	.
.	.	.	8B-/J	.	.	.	.	.	.	.	.	.	.	.	.	.	.	.	.	.	.	.
.	.	.	8A-/L	.	8b-\L	.	4BB-/	pi-	.	4d\	pi-	.	8b-\L	-us	.	.	.	.	.	.	8gg\L	8bb-\L
.	.	.	8B-/	.	8g\	.	.	.	.	.	.	.	8g\J	.	.	.	.	.	.	.	8ee-\	8gg\
!	!	!	!	!	!	!	!	!	!	!	!	!	!	!	!	!	!	!	!	!	!	!LO:TX:a:t=h
.	.	.	8d/	.	8a-\	.	4BB-/	-us	.	4d\	-us	.	8a-\L	.	.	.	.	.	.	.	8ff\	8aa-\
.	.	.	8B-/J	.	8f\J	.	.	.	.	.	.	.	8f\J	.	.	.	.	.	.	.	8b-\J	8ff\J
!	!	!	!	!	!LO:PB:g=original	!	!	!	!	!	!	!	!	!	!	!	!	!	!	!	!	!LO:LB:g=original
=32	=32	=32	=32	=32	=32	=32	=32	=32	=32	=32	=32	=32	=32	=32	=32	=32	=32	=32	=32	=32	=32	=32
!	!	!	!	!	!	!	!	!	!	!	!	!	!	!	!	!	!	!	!	!	!LO:TX:b:t=a	!
1E-	.	.	8G/L	.	4e-/	.	4E-\	es	1ryy	4e-\	est	.	4e-/	est	4r	4r	4r	4r	1E-	.	4g/	4ee-\
.	.	.	8B-/	.	.	.	.	.	.	.	.	.	.	.	.	.	.	.	.	.	.	.
!	!	!	!	!	!	!	!	!	!	!	!	!	!	!	!	!	!	!	!	!	!LO:TX:b:t=a	!
.	.	.	8e-/	.	4r	.	4r	.	.	4r	.	.	4r	.	4e-/	4g/	4G/	4e-\	.	.	4g/	4ee-\
.	.	.	8B-/J	.	.	.	.	.	.	.	.	.	.	.	.	.	.	.	.	.	.	.
!	!	!	!	!	!	!	!	!	!	!	!	!	!	!	!	!	!	!	!	!	!LO:TX:b:t=a	!
.	.	.	8G/L	.	2r	.	2r	.	.	2r	.	.	2r	.	4e-/	4g/	4G/	4e-\	.	.	4g/	4ee-\
.	.	.	8B-/	.	.	.	.	.	.	.	.	.	.	.	.	.	.	.	.	.	.	.
!	!	!	!	!	!	!	!	!	!	!	!	!	!	!	!	!	!	!	!	!	!LO:TX:b:t=a	!
.	.	.	8e-/	.	.	.	.	.	.	.	.	.	.	.	4e-/	4g/	4G/	4e-\	.	.	4g/	4ee-\
.	.	.	8B-/J	.	.	.	.	.	.	.	.	.	.	.	.	.	.	.	.	.	.	.
=33	=33	=33	=33	=33	=33	=33	=33	=33	=33	=33	=33	=33	=33	=33	=33	=33	=33	=33	=33	=33	=33	=33
!	!	!	!	!	!	!LO:DY:a:t=p.	!	!	!	!	!	!	!	!	!	!	!	!	!	!	!	!
1BB-	.	.	8A-/L	.	1dd	p	1BB-	qui-	1ryy	2f\	qui-	.	1dd	qui-	4r	4r	4r	4r	1BB-	.	4r	4r
.	.	.	8B-/	.	.	.	.	.	.	.	.	.	.	.	.	.	.	.	.	.	.	.
.	.	.	8d/	.	.	.	.	.	.	.	.	.	.	.	4B-/	4b-/	4B-/	4f\	.	.	4b-\	4ff\
.	.	.	8B-/J	.	.	.	.	.	.	.	.	.	.	.	.	.	.	.	.	.	.	.
.	.	.	8A-/L	.	.	.	.	.	.	2f\	.	.	.	.	4B-/	4b-/	4B-/	4f\	.	.	4b-\	4ff\
.	.	.	8B-/	.	.	.	.	.	.	.	.	.	.	.	.	.	.	.	.	.	.	.
.	.	.	8d/	.	.	.	.	.	.	.	.	.	.	.	4B-/	4b-/	4B-/	4f\	.	.	4b-\	4ff\
.	.	.	8B-/J	.	.	.	.	.	.	.	.	.	.	.	.	.	.	.	.	.	.	.
!	!	!	!LO:LB:g=original	!	!	!	!LO:LB:g=original	!	!	!	!	!	!	!	!	!LO:LB:g=original	!	!LO:LB:g=original	!	!	!LO:LB:g=original	!
=34	=34	=34	=34	=34	=34	=34	=34	=34	=34	=34	=34	=34	=34	=34	=34	=34	=34	=34	=34	=34	=34	=34
1E-	.	.	8G/L	.	2ee-\	.	2E-\	-a	1ryy	2g\	-a	.	2ee-\	-a	4r	4r	4r	4r	1E-	.	4r	4r
.	.	.	8B-/	.	.	.	.	.	.	.	.	.	.	.	.	.	.	.	.	.	.	.
.	.	.	8e-/	.	.	.	.	.	.	.	.	.	.	.	4e-/	4g/	4G/	4e-\	.	.	4g/	4ee-\
.	.	.	8B-/J	.	.	.	.	.	.	.	.	.	.	.	.	.	.	.	.	.	.	.
.	.	.	8G/L	.	2r	.	2r	.	.	2r	.	.	2r	.	4e-/	4g/	4G/	4e-\	.	.	4g/	4ee-\
.	.	.	8B-/	.	.	.	.	.	.	.	.	.	.	.	.	.	.	.	.	.	.	.
.	.	.	8e-/	.	.	.	.	.	.	.	.	.	.	.	4e-/	4g/	4G/	4e-\	.	.	4g/	4ee-\
.	.	.	8B-/J	.	.	.	.	.	.	.	.	.	.	.	.	.	.	.	.	.	.	.
!	!	!	!	!	!	!	!	!	!	!LO:LB:g=original	!	!	!LO:LB:g=original	!	!	!	!	!	!	!	!	!
=35	=35	=35	=35	=35	=35	=35	=35	=35	=35	=35	=35	=35	=35	=35	=35	=35	=35	=35	=35	=35	=35	=35
1BB-	.	.	8A-/L	.	1b-	.	2.BB-/	pi-	1ryy	2.d\	pi-	.	2.b-\	pi-	4r	4r	4r	4r	1BB-	.	4r	4r
.	.	.	8B-/	.	.	.	.	.	.	.	.	.	.	.	.	.	.	.	.	.	.	.
.	.	.	8d/	.	.	.	.	.	.	.	.	.	.	.	4B-/	4b-/	4B-/	4f\	.	.	4dd\	4ff\
.	.	.	8B-/J	.	.	.	.	.	.	.	.	.	.	.	.	.	.	.	.	.	.	.
.	.	.	8A-/L	.	.	.	.	.	.	.	.	.	.	.	4B-/	4b-/	4B-/	4f\	.	.	4dd\	4ff\
.	.	.	8B-/	.	.	.	.	.	.	.	.	.	.	.	.	.	.	.	.	.	.	.
.	.	.	8d/	.	.	.	4BB-/	-us	.	4d\	-us	.	4b-\	-us	4B-/	4b-/	4B-/	4f\	.	.	4dd\	4ff\
.	.	.	8B-/J	.	.	.	.	.	.	.	.	.	.	.	.	.	.	.	.	.	.	.
!	!	!	!	!	!	!	!	!	!	!	!	!	!	!	!LO:LB:g=original	!	!	!	!	!	!	!
=36	=36	=36	=36	=36	=36	=36	=36	=36	=36	=36	=36	=36	=36	=36	=36	=36	=36	=36	=36	=36	=36	=36
1E-	.	.	8G/L	.	4b-/	.	2E-\	es.	1ryy	2e-\	eſt.	.	4b-\	est	4r	4r	4r	4r	1E-	.	4r	4r
.	.	.	8B-/	.	.	.	.	.	.	.	.	.	.	.	.	.	.	.	.	.	.	.
.	.	.	8e-/	.	4e-/	.	.	.	.	.	.	.	4e-\	.	4e-/	4g/	4G/	4e-\	.	.	4g/	4ee-\
.	.	.	8B-/J	.	.	.	.	.	.	.	.	.	.	.	.	.	.	.	.	.	.	.
.	.	.	8G/L	.	2r	.	2r	.	.	2r	.	.	2r	.	4e-/	4g/	4G/	4e-\	.	.	4g/	4ee-\
.	.	.	8B-/	.	.	.	.	.	.	.	.	.	.	.	.	.	.	.	.	.	.	.
.	.	.	8e-/	.	.	.	.	.	.	.	.	.	.	.	4e-/	4g/	4G/	4e-\	.	.	4g/	4ee-\
.	.	.	8B-/J	.	.	.	.	.	.	.	.	.	.	.	.	.	.	.	.	.	.	.
=37	=37	=37	=37	=37	=37	=37	=37	=37	=37	=37	=37	=37	=37	=37	=37	=37	=37	=37	=37	=37	=37	=37
*	*	*	*	*	*	*	*	*	*	*	*	*	*	*	*	*	*	*2\right	*	*	*	*
!	!	!	!	!	!	!	!	!	!	!LO:TX:a:t=2.	!	!	!LO:TX:a:t=2:color=grey	!	!	!	!	!	!	!	!	!
2E-\	.	.	8G/L	.	2e-/	.	0r	.	1ryy	0r	.	.	0r	.	2e-/	2g/	2G/	2e-\	2E-\	.	2g/	2ee-\
.	.	.	8B-/	.	.	.	.	.	.	.	.	.	.	.	.	.	.	.	.	.	.	.
.	.	.	8e-/	.	.	.	.	.	.	.	.	.	.	.	.	.	.	.	.	.	.	.
.	.	.	8B-/J	.	.	.	.	.	.	.	.	.	.	.	.	.	.	.	.	.	.	.
2E-\	.	.	8G/L	.	2e-/	.	.	.	.	.	.	.	.	.	2e-/	2g/	2G/	2e-\	2E- 2EE-\	.	2g/	2ee-\
.	.	.	8B-/	.	.	.	.	.	.	.	.	.	.	.	.	.	.	.	.	.	.	.
.	.	.	8e-/	.	.	.	.	.	.	.	.	.	.	.	.	.	.	.	.	.	.	.
.	.	.	8B-/J	.	.	.	.	.	.	.	.	.	.	.	.	.	.	.	.	.	.	.
!	!	!	!	!	!	!	!	!	!	!	!	!	!	!	!	!	!LO:LB:g=original	!	!	!	!	!
=38	=38	=38	=38	=38	=38	=38	=38	=38	=38	=38	=38	=38	=38	=38	=38	=38	=38	=38	=38	=38	=38	=38
1E-	.	.	1G	.	2e-;/	.	.	.	1ryy	.	.	.	.	.	2e-/	2g/	1G	1e-	2E- 2EE-/	.	2g/	1ee-
!LO:TX:b:i:t=Finis dnia 22 Jully 1836	!	!	!LO:TX:b:t=K. Majewski	!	!LO:TX:b:i:t=Finis\nS.T. Wyrzałowski\nscripsit	!	!LO:TX:b:t=Finis.\nF. H&colon;	!	!	!	!	!	!	!	!LO:TX:b:i:t=Finis	!LO:TX:b:i:t=Finis	!LO:TX:b:t=Fins	!	!LO:TX:b:t=Fine	!	!LO:TX:b:t=Finis	!LO:TX:b:t=Finis
.	.	.	.	.	2r	.	.	.	.	.	.	.	.	.	2r	2r	.	.	2r	.	2r	.
==	==	==	==	==	==	==	==	==	==	==	==	==	==	==	==	==	==	==	==	==	==	==
*-	*-	*-	*-	*-	*-	*-	*-	*-	*-	*-	*-	*-	*-	*-	*-	*-	*-	*-	*-	*-	*-	*-
!!!system-decoration: [(g1)][(g2)][(g3)][(g4)]s14
!!!RDF**kern: | = vertical stroke
!!!ENC: Marcin Jachim
!!!END: 2020-11-09
!!!ENC: Marta Lawrence
!!!END: 2022-04-02
